storage/app/icons/phosphoricons/light/rows-plus-top-light.svg

<svg xmlns="http://www.w3.org/2000/svg" fill="currentColor" viewBox="0 0 256 256"><path d="M208 162H48a14 14 0 0 0-14 14v24a14 14 0 0 0 14 14h160a14 14 0 0 0 14-14v-24a14 14 0 0 0-14-14m2 38a2 2 0 0 1-2 2H48a2 2 0 0 1-2-2v-24a2 2 0 0 1 2-2h160a2 2 0 0 1 2 2Zm-2-110H48a14 14 0 0 0-14 14v24a14 14 0 0 0 14 14h160a14 14 0 0 0 14-14v-24a14 14 0 0 0-14-14m2 38a2 2 0 0 1-2 2H48a2 2 0 0 1-2-2v-24a2 2 0 0 1 2-2h160a2 2 0 0 1 2 2ZM98 40a6 6 0 0 1 6-6h18V16a6 6 0 0 1 12 0v18h18a6 6 0 0 1 0 12h-18v18a6 6 0 0 1-12 0V46h-18a6 6 0 0 1-6-6"/></svg>

<svg xmlns="http://www.w3.org/2000/svg" viewBox="0 0 256 256" fill="currentColor"><path d="M208,162H48a14,14,0,0,0-14,14v24a14,14,0,0,0,14,14H208a14,14,0,0,0,14-14V176A14,14,0,0,0,208,162Zm2,38a2,2,0,0,1-2,2H48a2,2,0,0,1-2-2V176a2,2,0,0,1,2-2H208a2,2,0,0,1,2,2ZM208,90H48a14,14,0,0,0-14,14v24a14,14,0,0,0,14,14H208a14,14,0,0,0,14-14V104A14,14,0,0,0,208,90Zm2,38a2,2,0,0,1-2,2H48a2,2,0,0,1-2-2V104a2,2,0,0,1,2-2H208a2,2,0,0,1,2,2ZM98,40a6,6,0,0,1,6-6h18V16a6,6,0,0,1,12,0V34h18a6,6,0,0,1,0,12H134V64a6,6,0,0,1-12,0V46H104A6,6,0,0,1,98,40Z"/></svg>
